icons/svg/seamark/beacon_black_pillar.svg

<?xml version="1.0" encoding="UTF-8" standalone="no"?>
<svg
   xmlns:dc="http://purl.org/dc/elements/1.1/"
   xmlns:cc="http://creativecommons.org/ns#"
   xmlns:rdf="http://www.w3.org/1999/02/22-rdf-syntax-ns#"
   xmlns:svg="http://www.w3.org/2000/svg"
   xmlns="http://www.w3.org/2000/svg"
   xmlns:sodipodi="http://sodipodi.sourceforge.net/DTD/sodipodi-0.dtd"
   xmlns:inkscape="http://www.inkscape.org/namespaces/inkscape"
   width="580"
   height="580"
   id="svg2"
   version="1.1"
   inkscape:version="0.48.4 r9939"
   sodipodi:docname="beacon_black_pillar.svg">
  <defs
     id="defs13">
    <inkscape:path-effect
       effect="gears"
       id="path-effect3774"
       is_visible="true"
       teeth="6"
       phi="-1.2" />
    <inkscape:path-effect
       effect="bend_path"
       id="path-effect3772"
       is_visible="false"
       bendpath="m 95.790098,316.51174 c 144.429032,-206.42506 223.313032,-11.7428 339.548092,0"
       prop_scale="1.19"
       scale_y_rel="false"
       vertical="false"
       bendpath-nodetypes="cc" />
  </defs>
  <sodipodi:namedview
     pagecolor="#ffffff"
     bordercolor="#666666"
     borderopacity="1"
     objecttolerance="10"
     gridtolerance="10"
     guidetolerance="10"
     inkscape:pageopacity="0"
     inkscape:pageshadow="2"
     inkscape:window-width="1920"
     inkscape:window-height="1004"
     id="namedview11"
     showgrid="false"
     inkscape:zoom="0.70710678"
     inkscape:cx="600.63379"
     inkscape:cy="350.39794"
     inkscape:window-x="1680"
     inkscape:window-y="0"
     inkscape:window-maximized="1"
     inkscape:current-layer="svg2"
     inkscape:object-nodes="false"
     inkscape:object-paths="false"
     inkscape:snap-grids="true"
     inkscape:snap-page="false"
     inkscape:snap-intersection-paths="false"
     inkscape:snap-midpoints="false"
     inkscape:snap-object-midpoints="true"
     inkscape:snap-nodes="false" />
  <metadata
     id="metadata2975">image/svg+xmlen<rdf:RDF>
  <cc:Work
     rdf:about="">
    <dc:format>image/svg+xml</dc:format>
    <dc:type
       rdf:resource="http://purl.org/dc/dcmitype/StillImage" />
    <dc:title />
  </cc:Work>
</rdf:RDF>
</metadata>
  <path
     style="opacity:0.42608696;color:#000000;fill:#8d8d8d;fill-opacity:1;fill-rule:nonzero;stroke:#a35151;stroke-width:0;stroke-linecap:round;stroke-linejoin:miter;stroke-miterlimit:4;stroke-opacity:1;stroke-dashoffset:0;marker:none;visibility:visible;display:inline;overflow:visible;enable-background:accumulate"
     d="m 253.75,176.53125 c -4.98118,3.5e-4 -9.93941,1.89159 -13.65546,5.20868 -3.71605,3.31709 -6.15588,8.02964 -6.71954,12.97882 l -23.28125,185.25 -63.90625,103.59375 -40.09375,0 c -5.3663,0.002 -10.698754,2.21214 -14.493305,6.0067 -3.794551,3.79455 -6.004564,9.127 -6.006695,14.4933 l 0,25 c 0.0021,5.3663 2.212144,10.69875 6.006695,14.4933 3.794551,3.79456 9.127005,6.00457 14.493305,6.0067 l 122.1875,0 c 11.34139,18.67347 31.70635,31.21875 54.9375,31.21875 23.22701,0 43.57321,-12.55638 54.90625,-31.21875 l 122.1875,0 c 5.3663,-0.002 10.69875,-2.21214 14.4933,-6.0067 3.79456,-3.79455 6.00457,-9.127 6.0067,-14.4933 l 0,-25 c -0.002,-5.3663 -2.21214,-10.69875 -6.0067,-14.4933 -3.79455,-3.79456 -9.127,-6.00457 -14.4933,-6.0067 l -41.28125,0 L 352.875,380.03125 332.3125,194.96875 c -0.50724,-4.99813 -2.9269,-9.77826 -6.65453,-13.14626 -3.72763,-3.368 -8.72791,-5.29195 -13.75172,-5.29124 z"
     id="path4185"
     inkscape:connector-curvature="0"
     sodipodi:nodetypes="csccccsccsccsccsccsccccscc" />
  <path
     style="color:#000000;fill:#000000;fill-opacity:1;fill-rule:nonzero;stroke:#a35151;stroke-width:0;stroke-linecap:round;stroke-linejoin:miter;stroke-miterlimit:4;stroke-opacity:1;stroke-dasharray:none;stroke-dashoffset:0;marker:none;visibility:visible;display:inline;overflow:visible;enable-background:accumulate"
     d="M 253.75,202.48705 229.95362,396.38702 151.5,513.96871 l 262.65625,0 -81.18036,-117.41997 -21.06964,-194.06169 z"
     id="rect3122"
     inkscape:connector-curvature="0"
     sodipodi:nodetypes="ccccccc" />
  <path
     style="fill:none;stroke:#000000;stroke-width:25;stroke-linecap:butt;stroke-linejoin:miter;stroke-miterlimit:4;stroke-opacity:1;stroke-dasharray:none"
     d="m 106.0882,516.57012 354.21851,0"
     id="path3759"
     inkscape:connector-curvature="0"
     sodipodi:nodetypes="cc" />
  <path
     sodipodi:type="arc"
     style="color:#000000;fill:#fefefe;fill-opacity:1;stroke:#000000;stroke-width:25;stroke-linecap:round;stroke-linejoin:round;stroke-miterlimit:10;stroke-opacity:1;stroke-dasharray:none;stroke-dashoffset:0;marker:none;visibility:visible;display:inline;overflow:visible;enable-background:accumulate"
     id="path3759-1"
     sodipodi:cx="210.27438"
     sodipodi:cy="76.036606"
     sodipodi:rx="40.838413"
     sodipodi:ry="40.838413"
     d="m 251.1128,76.036606 a 40.838413,40.838413 0 1 1 -81.67683,0 40.838413,40.838413 0 1 1 81.67683,0 z"
     transform="matrix(0.82289092,0,0,0.82289092,110.16458,453.8318)" />
  <path
     style="opacity:0.42608696;color:#000000;fill:#000000;fill-opacity:1;fill-rule:nonzero;stroke:#a35151;stroke-width:0;stroke-linecap:round;stroke-linejoin:miter;stroke-miterlimit:4;stroke-opacity:1;stroke-dashoffset:0;marker:none;visibility:visible;display:inline;overflow:visible;enable-background:accumulate"
     d="m 294.701,202.48709 17.20525,0 21.06964,194.06169 75.5502,109.27645 -64.30901,5.37017 -42.91041,-114.1141 z"
     id="rect3050"
     inkscape:connector-curvature="0"
     sodipodi:nodetypes="ccccccc" />
</svg>

<svg width="580" height="580" viewBox="0 0 580 580" fill="none" xmlns="http://www.w3.org/2000/svg">
<g clip-path="url(#clip0)">
<path opacity="0.426087" d="M253.75 176.531C248.769 176.532 243.811 178.423 240.095 181.74C236.378 185.057 233.939 189.77 233.375 194.719L210.094 379.969L146.188 483.562H106.094C100.727 483.565 95.395 485.775 91.6004 489.569C87.8059 493.364 85.5959 498.696 85.5938 504.062V529.062C85.5958 534.429 87.8059 539.761 91.6004 543.556C95.395 547.35 100.727 549.56 106.094 549.562H228.281C239.623 568.236 259.988 580.781 283.219 580.781C306.446 580.781 326.792 568.225 338.125 549.562H460.312C465.679 549.56 471.011 547.35 474.806 543.556C478.6 539.761 480.81 534.429 480.812 529.062V504.062C480.81 498.696 478.6 493.364 474.806 489.569C471.011 485.775 465.679 483.565 460.312 483.562H419.031L352.875 380.031L332.312 194.969C331.805 189.971 329.386 185.19 325.658 181.822C321.93 178.454 316.93 176.531 311.906 176.531H253.75Z" fill="#8D8D8D"/>
<path d="M253.75 202.487L229.954 396.387L151.5 513.969H414.156L332.976 396.549L311.906 202.487H253.75Z" fill="black"/>
<path d="M106.088 516.57H460.307" stroke="black" stroke-width="25"/>
<path d="M316.803 516.402C316.803 525.314 313.262 533.862 306.96 540.164C300.658 546.467 292.11 550.007 283.197 550.007C274.285 550.007 265.737 546.467 259.435 540.164C253.132 533.862 249.592 525.314 249.592 516.402C249.592 507.489 253.132 498.941 259.435 492.639C265.737 486.337 274.285 482.796 283.197 482.796C292.11 482.796 300.658 486.337 306.96 492.639C313.262 498.941 316.803 507.489 316.803 516.402V516.402Z" fill="#FEFEFE" stroke="black" stroke-width="20.5723" stroke-miterlimit="10" stroke-linecap="round" stroke-linejoin="round"/>
<path opacity="0.426087" d="M294.701 202.487H311.906L332.976 396.549L408.526 505.825L344.217 511.195L301.307 397.081L294.701 202.487Z" fill="black"/>
</g>
<defs>
<clipPath id="clip0">
<path d="M0 0H580V580H0V0Z" fill="white"/>
</clipPath>
</defs>
</svg>
